!!!id: EG011
!!!page: 42
!!!COM: Anonymous
!!!LYR: Anonymous
!!!PTL@@FR: Chansons Populaires du Canada
!!!OTL@@FR: Aurai-je Nanette?
!!!PUB: G. E. Desbarats
!!!YEM:
!!!PDT: 1865
!!!SMA:
!!!OMD:
!!!AGN-Laforte:
!!!AGN-type:
!!!AGN-rime:
**kern
*clefG2
*k[b-,e-]
*g:
*M3/8
*
*
8b-
=1
4b-
8f
=2
4d
8e-
=3
4f
8b-
=4
4b-
8f
!!LO:PB:g=original
=5
4d
8e-
=6
4.f
=7
8r
8f
=8
4b-
8cc
=9
4dd
8b-
=10
4g
8a
!!LO:PB:g=original
=11
4b-
8dd
=12
4cc
8a
=13
4f
8r
=14
4d
8e-
=15
8fL
8gJ
8a
=16
4b-
8f
!!LO:PB:g=original
=17
4f
8e-
=18
4d
8r
=19
4B-
8c
=20
4d
8e-
=21
8f
8f
8f
=22
4cc
8dd
!!LO:PB:g=original
=23
8ddq
4.b-
=24
8r
==||
8r
==||
*
*
==|
!!!RNB: eighth rest in m.7 and penultimate eighth rest in m.24 both flipped backwards in original
*-
